X:129
T:Dutchess of Bedford Waltz. Le4.129
M:3/4
L:1/8
Q:1/4=100
B:L.Leadley MS#4 c1850
Z:Village Music Project, 2016 Ruairidh Greig
K:Bb
F|B/A/B/c/d/e/|(fd).d|(fc).c|(dB).F|
B/A/B/c/d/e/|(fd).d|(fc).c|B2:|
|:Bd|f2d|g2(b/g/)|f/g/f/e/d/c/|dB B/d/|
f2d|g2 (b/g/)|f/g/f/e/d/c/|B3:|
|:b|(af)a|(bg)b|(af)a|b2(A/d/)|
f2d|g2(b/g/)|f/g/f/e/d/c/|B3:|

